!!!OTL: Promit vox Angelica
**kern
*staff1
=--
*clefC1
*k[]
1cc
2g
1g
2cc
=-
1b
2b
1cc
2g
=-
1cc
2dd
1cc
2a
=-
1b
0cc
=-
!!linebreak:original
1g
2a
1b
2cc
=-
1dd
2a
1dd
2dd
=-
1cc
2b
0cc
=-
!!linebreak:original
1dd
2cc
1b
2cc
=-
1dd
2a
1dd
2dd
=-
2cc
2cc
2b
0cc
=-
!!linebreak:original
1dd
2cc
1b
2cc
=-
1dd
2a
1dd
2dd
=-
1cc
2b
0cc
=-=
*-
!!title: @{OTL}, @{GTL}, ed. @{ENC}
!!!pag:
!!!GTL: Hymnbook C
!!!EFL: 
!!!YEM: Creative Commons CC/BY/NC/SA 4.0
!!!ENC: Marcin Konik
!!!END: 2015-0m-dd
!!!EED: Marcin Konik
!!!EEV: 
!!!ONB: Encoded in vim by Marcin Konik
!!!CharacterEncoding: utf-8
!!!RDF**kern: l=long note in original notation
!!!RDF**kern: i=editorial accidental
!!muse2ps: z14jc180F
!!!COM: Anonim
!!!CDT: [?]
!!!TXO: Polish
!!!ODT: 
!!!GTL: Hymnbook C
!!!ARL: Opactwo św. Wojciecha, Staniątki 
!!!voices:	1
